svgs/regular/barcode.svg

<svg xmlns="http://www.w3.org/2000/svg" viewBox="0 0 512 512"><!-- Font Awesome Pro 6.0.0-alpha2 by @fontawesome - https://fontawesome.com License - https://fontawesome.com/license (Commercial License) --><path d="M111.984 32C103.186 32 95.988 39.199 95.988 47.998V464.002C95.988 472.801 103.186 480 111.986 480C120.785 480 127.982 472.801 127.982 464.002V47.998C127.982 39.199 120.785 32 111.984 32ZM24 32H24C10.8 32 0 42.8 0 56V456C0 469.2 10.8 480 24 480H24C37.2 480 48 469.2 48 456V56C48 42.8 37.2 32 24 32ZM415.998 32C407.199 32 400 39.199 400 47.998V464.002C400 472.801 407.199 480 415.998 480S431.996 472.801 431.996 464.002V47.998C431.996 39.199 424.797 32 415.998 32ZM296 32H296C282.8 32 272 42.8 272 56V456C272 469.2 282.8 480 296 480H296C309.2 480 320 469.2 320 456V56C320 42.8 309.2 32 296 32ZM488 32L488 32C474.8 32 464 42.8 464 56V456C464 469.2 474.8 480 488 480L488 480C501.2 480 512 469.2 512 456V56C512 42.8 501.2 32 488 32ZM184 32H184C170.8 32 160 42.8 160 56V456C160 469.2 170.8 480 184 480H184C197.2 480 208 469.2 208 456V56C208 42.8 197.2 32 184 32Z"/></svg>

<svg xmlns="http://www.w3.org/2000/svg" viewBox="0 0 512 512"><!--! Font Awesome Pro 6.4.0 by @fontawesome - https://fontawesome.com License - https://fontawesome.com/license (Commercial License) Copyright 2023 Fonticons, Inc. --><path d="M24 32C10.7 32 0 42.7 0 56V456c0 13.3 10.7 24 24 24s24-10.7 24-24V56c0-13.3-10.7-24-24-24zm88 0c-8.8 0-16 7.2-16 16V464c0 8.8 7.2 16 16 16s16-7.2 16-16V48c0-8.8-7.2-16-16-16zm72 0c-13.3 0-24 10.7-24 24V456c0 13.3 10.7 24 24 24s24-10.7 24-24V56c0-13.3-10.7-24-24-24zm112 0c-13.3 0-24 10.7-24 24V456c0 13.3 10.7 24 24 24s24-10.7 24-24V56c0-13.3-10.7-24-24-24zM464 56V456c0 13.3 10.7 24 24 24s24-10.7 24-24V56c0-13.3-10.7-24-24-24s-24 10.7-24 24zm-64-8V464c0 8.8 7.2 16 16 16s16-7.2 16-16V48c0-8.8-7.2-16-16-16s-16 7.2-16 16z"/></svg>
